X:8401
T:Kas a-barh
C:Trad 4, 15
M:4/4
L:1/8
K:C
e2ef e2ed|~c2~B2 A4|~d2 d2 B2BG  |ABcd e3c|\
e2ef e2ed| c2~B2 A4|d2 d2 B2BG |ABcB ~A4:|
|:e2g2 A2Ae|edeg B3c|dedc B2BG |ABcd e3c|\
ec gc A2Ae |edeg B3c|dedc B2BG |ABcB A4:|
